storage/app/icons/phosphoricons/regular/skull.svg

<svg xmlns="http://www.w3.org/2000/svg" fill="currentColor" viewBox="0 0 256 256"><path d="M92 104a28 28 0 1 0 28 28 28 28 0 0 0-28-28m0 40a12 12 0 1 1 12-12 12 12 0 0 1-12 12m72-40a28 28 0 1 0 28 28 28 28 0 0 0-28-28m0 40a12 12 0 1 1 12-12 12 12 0 0 1-12 12M128 16C70.65 16 24 60.86 24 116c0 34.1 18.27 66 48 84.28V216a16 16 0 0 0 16 16h80a16 16 0 0 0 16-16v-15.72C213.73 182 232 150.1 232 116c0-55.14-46.65-100-104-100m44.12 172.69a8 8 0 0 0-4.12 7V216h-16v-24a8 8 0 0 0-16 0v24h-16v-24a8 8 0 0 0-16 0v24H88v-20.31a8 8 0 0 0-4.12-7C56.81 173.69 40 145.84 40 116c0-46.32 39.48-84 88-84s88 37.68 88 84c0 29.83-16.81 57.69-43.88 72.69"/></svg>

<svg xmlns="http://www.w3.org/2000/svg" viewBox="0 0 256 256" fill="currentColor"><path d="M92,104a28,28,0,1,0,28,28A28,28,0,0,0,92,104Zm0,40a12,12,0,1,1,12-12A12,12,0,0,1,92,144Zm72-40a28,28,0,1,0,28,28A28,28,0,0,0,164,104Zm0,40a12,12,0,1,1,12-12A12,12,0,0,1,164,144ZM128,16C70.65,16,24,60.86,24,116c0,34.1,18.27,66,48,84.28V216a16,16,0,0,0,16,16h80a16,16,0,0,0,16-16V200.28C213.73,182,232,150.1,232,116,232,60.86,185.35,16,128,16Zm44.12,172.69a8,8,0,0,0-4.12,7V216H152V192a8,8,0,0,0-16,0v24H120V192a8,8,0,0,0-16,0v24H88V195.69a8,8,0,0,0-4.12-7C56.81,173.69,40,145.84,40,116c0-46.32,39.48-84,88-84s88,37.68,88,84C216,145.83,199.19,173.69,172.12,188.69Z"/></svg>
